packages/bpk-svgs/src/icons/lg/face-id.svg

<svg viewBox="0 0 24 24" fill="none" xmlns="http://www.w3.org/2000/svg">
<path d="M4 6V8C4 8.55228 3.55228 9 3 9C2.44772 9 2 8.55228 2 8V6C2 3.79086 3.79086 2 6 2H8C8.55228 2 9 2.44772 9 3C9 3.55228 8.55228 4 8 4H6C4.89543 4 4 4.89543 4 6Z" fill="#111236"/>
<path d="M16 2H18C20.2091 2 22 3.79086 22 6V8C22 8.55228 21.5523 9 21 9C20.4477 9 20 8.55228 20 8V6C20 4.89543 19.1046 4 18 4H16C15.4477 4 15 3.55228 15 3C15 2.44772 15.4477 2 16 2Z" fill="#111236"/>
<path d="M4 16V18C4 19.1046 4.89543 20 6 20H8C8.55228 20 9 20.4477 9 21C9 21.5523 8.55228 22 8 22H6C3.79086 22 2 20.2091 2 18V16C2 15.4477 2.44772 15 3 15C3.55228 15 4 15.4477 4 16Z" fill="#111236"/>
<path d="M22 16V18C22 20.2091 20.2091 22 18 22H16C15.4477 22 15 21.5523 15 21C15 20.4477 15.4477 20 16 20H18C19.1046 20 20 19.1046 20 18V16C20 15.4477 20.4477 15 21 15C21.5523 15 22 15.4477 22 16Z" fill="#111236"/>
<path d="M7 8C7 7.44772 7.44772 7 8 7C8.55229 7 9 7.44772 9 8V10C9 10.5523 8.55229 11 8 11C7.44772 11 7 10.5523 7 10V8Z" fill="#111236"/>
<path d="M15 8C15 7.44772 15.4477 7 16 7C16.5523 7 17 7.44772 17 8V10C17 10.5523 16.5523 11 16 11C15.4477 11 15 10.5523 15 10V8Z" fill="#111236"/>
<path d="M15.5554 16.8657C12.5273 18.832 9.79294 17.8524 8.4048 16.8383C7.99311 16.5376 7.87614 15.9184 8.14354 15.4553C8.41094 14.9923 8.96145 14.8607 9.37313 15.1615C10.3553 15.879 12.3615 16.6309 14.6666 15.1341C15.0917 14.858 15.6353 15.0219 15.8808 15.5C16.1262 15.9782 15.9806 16.5896 15.5554 16.8657Z" fill="#111236"/>
<path d="M12 8.5C12.5523 8.5 13 8.94772 13 9.5V11.6716C13 12.4672 12.6839 13.2303 12.1213 13.7929L11.7071 14.2071C11.3166 14.5976 10.6834 14.5976 10.2929 14.2071C9.90237 13.8166 9.90237 13.1834 10.2929 12.7929L10.7071 12.3787C10.8946 12.1911 11 11.9368 11 11.6716V9.5C11 8.94772 11.4477 8.5 12 8.5Z" fill="#111236"/>
</svg>

<svg xmlns="http://www.w3.org/2000/svg" viewBox="0 0 24 24"><path d="M4 6v2a1 1 0 0 1-2 0V6a4 4 0 0 1 4-4h2a1 1 0 0 1 0 2H6a2 2 0 0 0-2 2zM16 2h2a4 4 0 0 1 4 4v2a1 1 0 1 1-2 0V6a2 2 0 0 0-2-2h-2a1 1 0 1 1 0-2zM4 16v2a2 2 0 0 0 2 2h2a1 1 0 1 1 0 2H6a4 4 0 0 1-4-4v-2a1 1 0 1 1 2 0zM22 16v2a4 4 0 0 1-4 4h-2a1 1 0 1 1 0-2h2a2 2 0 0 0 2-2v-2a1 1 0 1 1 2 0zM7 8a1 1 0 0 1 2 0v2a1 1 0 1 1-2 0V8zM15 8a1 1 0 1 1 2 0v2a1 1 0 1 1-2 0V8zM15.555 16.866c-3.028 1.966-5.762.986-7.15-.028-.412-.3-.529-.92-.261-1.383.267-.463.817-.594 1.23-.293.981.717 2.987 1.469 5.293-.028.425-.276.968-.112 1.214.366.245.478.1 1.09-.326 1.366zM12 8.5a1 1 0 0 1 1 1v2.172a3 3 0 0 1-.879 2.12l-.414.415a1 1 0 0 1-1.414-1.414l.414-.414a1 1 0 0 0 .293-.707V9.5a1 1 0 0 1 1-1z"/></svg>
